X:1
T:Wer das elendt bawen wil
T:Anonymous
T:Source : Trium vocum cantiones---Nürnberg---J.Petreius---1541. Editor : André Vierendeels (07/09/16).
T:Notes : Original clefs : C4, F3, F4 Editorial accidentals above the staff Original note values have been halved Text Middle German
T:Wer das elendt bawen wil
T:©
T:©
T:©
C:Anonymous
Z:©
%%score [ 1 2 3 ]
L:1/8
Q:1/4=101
M:2/2
K:C
V:1 treble-8 nm="Tenor 1" snm="T 1"
V:2 treble-8 nm="Tenor 2" snm="T 2"
V:3 bass nm="Bass" snm="B"
V:1
 c4 d4 | e2 dc B2 B2 | c3 B AG F2- | F2 E2 F2 F2 | E2 C2 D2 F2 | E2 F3 D d2- | d2 c2 d2 f2 | %7
w: Wer das|e- * * * lendt|ba- * * * *|* * * wen|wil, der mach sich|_ _ _ _|* * auff, und|
 e2 d4 c2 | d2 d2 D3 E | F3 G A2 Bc | d2 c4 B2 | c6 Bc | d2 D2 E2 E2 | D2 d2 c2 d2 | B2 c4 B2 | %15
w: zie da- *|hin, wol auff sant|Ja- * * * *|* * cobs|stras- * *|sen, zwey par schuh|die musz _ _|_ _ er|
 c2 e2 edcB | A3 B c2 c2 | FEFG AGAB | c2 d4 c2 | d8 |] %20
w: han, ein schus- * * *|* * * sel|bey- * * * * * * *|der fla- *|schen.|
V:2
 F4 F4 | G4 G4 | A4 A4 | A6 A2 | A4 A4 | A4 A4 | G4 F4 | G6 G2 | A4 A4 | F4 F4 | D8 | C8 | A4 A4 | %13
w: Wer das|e- lendt|ba- wen-|wil, der|mach sich|auff und|zie da-|hin, wol|auff sant|Ja- cobs|stras-|se,|zwey par|
 A4 A4 | G4 F4 | G6 A2 | F4 E4 | D4 F4 | E2 D2 E4 | D8 |] %20
w: schuh die|musz er|han, ein|schus- sel|bey der|fla- * *|schen.|
V:3
 F,4 D,4 | C,2 B,,A,, G,,4 | F,,2 F,3 E, D,2- | D,2 C,2 D,2 D,2 | A,,4 z2 D,2 | %5
w: Wer das|e- * * *|lendt ba- * *|* * * wen|wil der|
 A,,2 D,2 F,3 E,/D,/ | E,2 E,2 D,2 D,2 | C,2 D,2 E,4 | D,3 E, F,3 G, | A,2 A,2 D,E,F,G, | %10
w: mach _ _ _ _|_ sich aff, und|zie da hin,|wol _ auff _|_ sant Ja- * * *|
 A,2 G,4 F,2 | G,6 F,E, | D,4 A,,4 | D,2 D,2 A,,2 D,2 | E,2 C,2 D,4 | C,4 z2 A,,2 | D,4 A,,4 | %17
w: * * cobs|stras- * *|* se,|zwey pa schuh die|musz _ er|han, ein|schus- sel|
 A,G,F,E, D,2 D,2 | A,,2 B,,2 A,,4 | A,8 |] %20
w: bey- * * * * der|fla- * *|schen.|

